X:74
T: DROBEN AUF GRUENER WALDHEID
N: K1261
O: Europa, Mitteleuropa, Deutschland, Hessen, Darmstadt
R: Kinder - Lied, Zaehl - Geschichte
M: 6/8
L: 1/16
K: G
 | G3FG2A2G2A2 | B6
d6 | B2B2AA | A2A2
AA | B2B2A2 | G4
D2 | G3FG2A2G2A2 | B6z4
GB | d4d2c4d2 | B4z8
B2B2A2 | B2BBA2
G3FG2A2G2A2 | B6
d6 | B2B2AA | A2A2
AA | B2B2A2 | G6

